app/assets/images/icons/active/trash.svg

<?xml version="1.0" encoding="UTF-8" standalone="no"?>
<svg width="32px" height="232px" viewBox="0 0 32 232" version="1.1" xmlns="http://www.w3.org/2000/svg" xmlns:xlink="http://www.w3.org/1999/xlink" xmlns:sketch="http://www.bohemiancoding.com/sketch/ns">
    <title>trash</title>
    <description>Created with Sketch (http://www.bohemiancoding.com/sketch)</description>
    <defs></defs>
    <g id="Actions" stroke="none" stroke-width="1" fill="none" fill-rule="evenodd" sketch:type="MSPage">
        <path d="M25.4545017,126.093393 L20.8218584,126.093393 L20.8218584,124.284393 C20.8218584,123.025036 19.807896,122 18.5560905,122 L14.2171401,122 C12.9624458,122 11.9465575,123.025036 11.9465575,124.284393 L11.9465575,126.093393 L6.54164661,126.093393 C5.68945595,126.093393 5,126.782857 5,127.643964 L5,128.140571 C5,128.997821 5.68945595,129.695 6.54164661,129.695 L25.4545017,129.695 C26.3057294,129.695 27,128.997821 27,128.140571 L27,127.643964 C27,126.782857 26.3057294,126.093393 25.4545017,126.093393 L25.4545017,126.093393 L25.4545017,126.093393 L25.4545017,126.093393 Z M18.9431873,126.093393 L13.8223399,126.093393 L13.8223399,124.284393 C13.8223399,124.069357 14.0004815,123.888071 14.2171401,123.888071 L18.5560905,123.888071 C18.7698604,123.888071 18.9431873,124.069357 18.9431873,124.284393 L18.9431873,126.093393 Z M24.0139624,131.657321 L7.87722677,131.657321 C7.02503611,131.657321 6.33269138,132.352571 6.33269138,133.208857 L6.33269138,147.4475 C6.33269138,148.300893 7.02503611,149 7.87722677,149 L24.0139624,149 C24.8613385,149 25.5556091,148.300893 25.5556091,147.4475 L25.5556091,133.208857 C25.5556091,132.352571 24.8613385,131.657321 24.0139624,131.657321 Z M11.7433799,144.332857 C11.7433799,144.991464 11.211844,145.526643 10.5532017,145.526643 L10.3991334,145.526643 C9.74626866,145.526643 9.21762157,144.991464 9.21762157,144.332857 L9.21762157,135.953214 C9.21762157,135.296536 9.74626866,134.763286 10.3991334,134.763286 L10.5532017,134.763286 C11.211844,134.763286 11.7433799,135.296536 11.7433799,135.953214 L11.7433799,144.332857 Z M17.1396245,144.332857 C17.1396245,144.991464 16.6109774,145.526643 15.9619644,145.526643 L15.8021184,145.526643 C15.1482908,145.526643 14.6196437,144.991464 14.6196437,144.332857 L14.6196437,135.953214 C14.6196437,135.296536 15.1482908,134.763286 15.8021184,134.763286 L15.9619644,134.763286 C16.6109774,134.763286 17.1396245,135.296536 17.1396245,135.953214 L17.1396245,144.332857 Z M22.550313,144.332857 C22.550313,144.991464 22.0178142,145.526643 21.3659124,145.526643 L21.2060664,145.526643 C20.5532017,145.526643 20.0245546,144.991464 20.0245546,144.332857 L20.0245546,135.953214 C20.0245546,135.296536 20.5532017,134.763286 21.2060664,134.763286 L21.3659124,134.763286 C22.0178142,134.763286 22.550313,135.296536 22.550313,135.953214 L22.550313,144.332857 Z M22.550313,144.332857" id="trash--lp-blue" fill="#206FAC" sketch:type="MSShapeGroup"></path>
        <path d="M25.4545017,86.0933929 L20.8218584,86.0933929 L20.8218584,84.2843929 C20.8218584,83.0250357 19.807896,82 18.5560905,82 L14.2171401,82 C12.9624458,82 11.9465575,83.0250357 11.9465575,84.2843929 L11.9465575,86.0933929 L6.54164661,86.0933929 C5.68945595,86.0933929 5,86.7828571 5,87.6439643 L5,88.1405714 C5,88.9978214 5.68945595,89.695 6.54164661,89.695 L25.4545017,89.695 C26.3057294,89.695 27,88.9978214 27,88.1405714 L27,87.6439643 C27,86.7828571 26.3057294,86.0933929 25.4545017,86.0933929 L25.4545017,86.0933929 L25.4545017,86.0933929 L25.4545017,86.0933929 Z M18.9431873,86.0933929 L13.8223399,86.0933929 L13.8223399,84.2843929 C13.8223399,84.0693571 14.0004815,83.8880714 14.2171401,83.8880714 L18.5560905,83.8880714 C18.7698604,83.8880714 18.9431873,84.0693571 18.9431873,84.2843929 L18.9431873,86.0933929 Z M24.0139624,91.6573214 L7.87722677,91.6573214 C7.02503611,91.6573214 6.33269138,92.3525714 6.33269138,93.2088571 L6.33269138,107.4475 C6.33269138,108.300893 7.02503611,109 7.87722677,109 L24.0139624,109 C24.8613385,109 25.5556091,108.300893 25.5556091,107.4475 L25.5556091,93.2088571 C25.5556091,92.3525714 24.8613385,91.6573214 24.0139624,91.6573214 Z M11.7433799,104.332857 C11.7433799,104.991464 11.211844,105.526643 10.5532017,105.526643 L10.3991334,105.526643 C9.74626866,105.526643 9.21762157,104.991464 9.21762157,104.332857 L9.21762157,95.9532143 C9.21762157,95.2965357 9.74626866,94.7632857 10.3991334,94.7632857 L10.5532017,94.7632857 C11.211844,94.7632857 11.7433799,95.2965357 11.7433799,95.9532143 L11.7433799,104.332857 Z M17.1396245,104.332857 C17.1396245,104.991464 16.6109774,105.526643 15.9619644,105.526643 L15.8021184,105.526643 C15.1482908,105.526643 14.6196437,104.991464 14.6196437,104.332857 L14.6196437,95.9532143 C14.6196437,95.2965357 15.1482908,94.7632857 15.8021184,94.7632857 L15.9619644,94.7632857 C16.6109774,94.7632857 17.1396245,95.2965357 17.1396245,95.9532143 L17.1396245,104.332857 Z M22.550313,104.332857 C22.550313,104.991464 22.0178142,105.526643 21.3659124,105.526643 L21.2060664,105.526643 C20.5532017,105.526643 20.0245546,104.991464 20.0245546,104.332857 L20.0245546,95.9532143 C20.0245546,95.2965357 20.5532017,94.7632857 21.2060664,94.7632857 L21.3659124,94.7632857 C22.0178142,94.7632857 22.550313,95.2965357 22.550313,95.9532143 L22.550313,104.332857 Z M22.550313,104.332857" id="trash--white" fill="#FFFFFF" sketch:type="MSShapeGroup"></path>
        <path d="M25.4545017,46.0933929 L20.8218584,46.0933929 L20.8218584,44.2843929 C20.8218584,43.0250357 19.807896,42 18.5560905,42 L14.2171401,42 C12.9624458,42 11.9465575,43.0250357 11.9465575,44.2843929 L11.9465575,46.0933929 L6.54164661,46.0933929 C5.68945595,46.0933929 5,46.7828571 5,47.6439643 L5,48.1405714 C5,48.9978214 5.68945595,49.695 6.54164661,49.695 L25.4545017,49.695 C26.3057294,49.695 27,48.9978214 27,48.1405714 L27,47.6439643 C27,46.7828571 26.3057294,46.0933929 25.4545017,46.0933929 L25.4545017,46.0933929 L25.4545017,46.0933929 L25.4545017,46.0933929 Z M18.9431873,46.0933929 L13.8223399,46.0933929 L13.8223399,44.2843929 C13.8223399,44.0693571 14.0004815,43.8880714 14.2171401,43.8880714 L18.5560905,43.8880714 C18.7698604,43.8880714 18.9431873,44.0693571 18.9431873,44.2843929 L18.9431873,46.0933929 Z M24.0139624,51.6573214 L7.87722677,51.6573214 C7.02503611,51.6573214 6.33269138,52.3525714 6.33269138,53.2088571 L6.33269138,67.4475 C6.33269138,68.3008929 7.02503611,69 7.87722677,69 L24.0139624,69 C24.8613385,69 25.5556091,68.3008929 25.5556091,67.4475 L25.5556091,53.2088571 C25.5556091,52.3525714 24.8613385,51.6573214 24.0139624,51.6573214 Z M11.7433799,64.3328571 C11.7433799,64.9914643 11.211844,65.5266429 10.5532017,65.5266429 L10.3991334,65.5266429 C9.74626866,65.5266429 9.21762157,64.9914643 9.21762157,64.3328571 L9.21762157,55.9532143 C9.21762157,55.2965357 9.74626866,54.7632857 10.3991334,54.7632857 L10.5532017,54.7632857 C11.211844,54.7632857 11.7433799,55.2965357 11.7433799,55.9532143 L11.7433799,64.3328571 Z M17.1396245,64.3328571 C17.1396245,64.9914643 16.6109774,65.5266429 15.9619644,65.5266429 L15.8021184,65.5266429 C15.1482908,65.5266429 14.6196437,64.9914643 14.6196437,64.3328571 L14.6196437,55.9532143 C14.6196437,55.2965357 15.1482908,54.7632857 15.8021184,54.7632857 L15.9619644,54.7632857 C16.6109774,54.7632857 17.1396245,55.2965357 17.1396245,55.9532143 L17.1396245,64.3328571 Z M22.550313,64.3328571 C22.550313,64.9914643 22.0178142,65.5266429 21.3659124,65.5266429 L21.2060664,65.5266429 C20.5532017,65.5266429 20.0245546,64.9914643 20.0245546,64.3328571 L20.0245546,55.9532143 C20.0245546,55.2965357 20.5532017,54.7632857 21.2060664,54.7632857 L21.3659124,54.7632857 C22.0178142,54.7632857 22.550313,55.2965357 22.550313,55.9532143 L22.550313,64.3328571 Z M22.550313,64.3328571" id="trash--body-grey" fill="#67737B" sketch:type="MSShapeGroup"></path>
        <path d="M25.4545017,6.09339286 L20.8218584,6.09339286 L20.8218584,4.28439286 C20.8218584,3.02503571 19.807896,2 18.5560905,2 L14.2171401,2 C12.9624458,2 11.9465575,3.02503571 11.9465575,4.28439286 L11.9465575,6.09339286 L6.54164661,6.09339286 C5.68945595,6.09339286 5,6.78285714 5,7.64396429 L5,8.14057143 C5,8.99782143 5.68945595,9.695 6.54164661,9.695 L25.4545017,9.695 C26.3057294,9.695 27,8.99782143 27,8.14057143 L27,7.64396429 C27,6.78285714 26.3057294,6.09339286 25.4545017,6.09339286 L25.4545017,6.09339286 L25.4545017,6.09339286 L25.4545017,6.09339286 Z M18.9431873,6.09339286 L13.8223399,6.09339286 L13.8223399,4.28439286 C13.8223399,4.06935714 14.0004815,3.88807143 14.2171401,3.88807143 L18.5560905,3.88807143 C18.7698604,3.88807143 18.9431873,4.06935714 18.9431873,4.28439286 L18.9431873,6.09339286 Z M24.0139624,11.6573214 L7.87722677,11.6573214 C7.02503611,11.6573214 6.33269138,12.3525714 6.33269138,13.2088571 L6.33269138,27.4475 C6.33269138,28.3008929 7.02503611,29 7.87722677,29 L24.0139624,29 C24.8613385,29 25.5556091,28.3008929 25.5556091,27.4475 L25.5556091,13.2088571 C25.5556091,12.3525714 24.8613385,11.6573214 24.0139624,11.6573214 Z M11.7433799,24.3328571 C11.7433799,24.9914643 11.211844,25.5266429 10.5532017,25.5266429 L10.3991334,25.5266429 C9.74626866,25.5266429 9.21762157,24.9914643 9.21762157,24.3328571 L9.21762157,15.9532143 C9.21762157,15.2965357 9.74626866,14.7632857 10.3991334,14.7632857 L10.5532017,14.7632857 C11.211844,14.7632857 11.7433799,15.2965357 11.7433799,15.9532143 L11.7433799,24.3328571 Z M17.1396245,24.3328571 C17.1396245,24.9914643 16.6109774,25.5266429 15.9619644,25.5266429 L15.8021184,25.5266429 C15.1482908,25.5266429 14.6196437,24.9914643 14.6196437,24.3328571 L14.6196437,15.9532143 C14.6196437,15.2965357 15.1482908,14.7632857 15.8021184,14.7632857 L15.9619644,14.7632857 C16.6109774,14.7632857 17.1396245,15.2965357 17.1396245,15.9532143 L17.1396245,24.3328571 Z M22.550313,24.3328571 C22.550313,24.9914643 22.0178142,25.5266429 21.3659124,25.5266429 L21.2060664,25.5266429 C20.5532017,25.5266429 20.0245546,24.9914643 20.0245546,24.3328571 L20.0245546,15.9532143 C20.0245546,15.2965357 20.5532017,14.7632857 21.2060664,14.7632857 L21.3659124,14.7632857 C22.0178142,14.7632857 22.550313,15.2965357 22.550313,15.9532143 L22.550313,24.3328571 Z M22.550313,24.3328571" id="trash--title-grey" fill="#3A434E" sketch:type="MSShapeGroup"></path>
    </g>
</svg>

<svg width="32" height="232" viewBox="0 0 32 232" xmlns="http://www.w3.org/2000/svg" xmlns:sketch="http://www.bohemiancoding.com/sketch/ns"><title>trash</title><g sketch:type="MSPage" fill="none"><path d="M25.455 126.093h-4.633v-1.809c0-1.259-1.014-2.284-2.266-2.284h-4.339c-1.255 0-2.271 1.025-2.271 2.284v1.809h-5.405c-.852 0-1.542.689-1.542 1.551v.497c0 .857.689 1.554 1.542 1.554h18.913c.851 0 1.545-.697 1.545-1.554v-.497c0-.861-.694-1.551-1.545-1.551zm-6.511 0h-5.121v-1.809c0-.215.178-.396.395-.396h4.339c.214 0 .387.181.387.396v1.809zm5.071 5.564h-16.137c-.852 0-1.545.695-1.545 1.552v14.239c0 .853.692 1.553 1.545 1.553h16.137c.847 0 1.542-.699 1.542-1.553v-14.239c0-.856-.694-1.552-1.542-1.552zm-12.271 12.676c0 .659-.532 1.194-1.19 1.194h-.154c-.653 0-1.182-.535-1.182-1.194v-8.38c0-.657.529-1.19 1.182-1.19h.154c.659 0 1.19.533 1.19 1.19v8.38zm5.396 0c0 .659-.529 1.194-1.178 1.194h-.16c-.654 0-1.182-.535-1.182-1.194v-8.38c0-.657.529-1.19 1.182-1.19h.16c.649 0 1.178.533 1.178 1.19v8.38zm5.411 0c0 .659-.532 1.194-1.184 1.194h-.16c-.653 0-1.182-.535-1.182-1.194v-8.38c0-.657.529-1.19 1.182-1.19h.16c.652 0 1.184.533 1.184 1.19v8.38zm0 0" fill="#206FAC" sketch:type="MSShapeGroup"/><path d="M25.455 86.093h-4.633v-1.809c0-1.259-1.014-2.284-2.266-2.284h-4.339c-1.255 0-2.271 1.025-2.271 2.284v1.809h-5.405c-.852 0-1.542.689-1.542 1.551v.497c0 .857.689 1.554 1.542 1.554h18.913c.851 0 1.545-.697 1.545-1.554v-.497c0-.861-.694-1.551-1.545-1.551zm-6.511 0h-5.121v-1.809c0-.215.178-.396.395-.396h4.339c.214 0 .387.181.387.396v1.809zm5.071 5.564h-16.137c-.852 0-1.545.695-1.545 1.552v14.239c0 .853.692 1.552 1.545 1.552h16.137c.847 0 1.542-.699 1.542-1.552v-14.239c0-.856-.694-1.552-1.542-1.552zm-12.271 12.676c0 .659-.532 1.194-1.19 1.194h-.154c-.653 0-1.182-.535-1.182-1.194v-8.38c0-.657.529-1.19 1.182-1.19h.154c.659 0 1.19.533 1.19 1.19v8.38zm5.396 0c0 .659-.529 1.194-1.178 1.194h-.16c-.654 0-1.182-.535-1.182-1.194v-8.38c0-.657.529-1.19 1.182-1.19h.16c.649 0 1.178.533 1.178 1.19v8.38zm5.411 0c0 .659-.532 1.194-1.184 1.194h-.16c-.653 0-1.182-.535-1.182-1.194v-8.38c0-.657.529-1.19 1.182-1.19h.16c.652 0 1.184.533 1.184 1.19v8.38zm0 0" fill="#fff" sketch:type="MSShapeGroup"/><path d="M25.455 46.093h-4.633v-1.809c0-1.259-1.014-2.284-2.266-2.284h-4.339c-1.255 0-2.271 1.025-2.271 2.284v1.809h-5.405c-.852 0-1.542.689-1.542 1.551v.497c0 .857.689 1.554 1.542 1.554h18.913c.851 0 1.545-.697 1.545-1.554v-.497c0-.861-.694-1.551-1.545-1.551zm-6.511 0h-5.121v-1.809c0-.215.178-.396.395-.396h4.339c.214 0 .387.181.387.396v1.809zm5.071 5.564h-16.137c-.852 0-1.545.695-1.545 1.552v14.239c0 .853.692 1.552 1.545 1.552h16.137c.847 0 1.542-.699 1.542-1.552v-14.239c0-.856-.694-1.552-1.542-1.552zm-12.271 12.676c0 .659-.532 1.194-1.19 1.194h-.154c-.653 0-1.182-.535-1.182-1.194v-8.38c0-.657.529-1.19 1.182-1.19h.154c.659 0 1.19.533 1.19 1.19v8.38zm5.396 0c0 .659-.529 1.194-1.178 1.194h-.16c-.654 0-1.182-.535-1.182-1.194v-8.38c0-.657.529-1.19 1.182-1.19h.16c.649 0 1.178.533 1.178 1.19v8.38zm5.411 0c0 .659-.532 1.194-1.184 1.194h-.16c-.653 0-1.182-.535-1.182-1.194v-8.38c0-.657.529-1.19 1.182-1.19h.16c.652 0 1.184.533 1.184 1.19v8.38zm0 0" fill="#67737B" sketch:type="MSShapeGroup"/><path d="M25.455 6.093h-4.633v-1.809c0-1.259-1.014-2.284-2.266-2.284h-4.339c-1.255 0-2.271 1.025-2.271 2.284v1.809h-5.405c-.852 0-1.542.689-1.542 1.551v.497c0 .857.689 1.554 1.542 1.554h18.913c.851 0 1.545-.697 1.545-1.554v-.497c0-.861-.694-1.551-1.545-1.551zm-6.511 0h-5.121v-1.809c0-.215.178-.396.395-.396h4.339c.214 0 .387.181.387.396v1.809zm5.071 5.564h-16.137c-.852 0-1.545.695-1.545 1.552v14.239c0 .853.692 1.552 1.545 1.552h16.137c.847 0 1.542-.699 1.542-1.552v-14.239c0-.856-.694-1.552-1.542-1.552zm-12.271 12.676c0 .659-.532 1.194-1.19 1.194h-.154c-.653 0-1.182-.535-1.182-1.194v-8.38c0-.657.529-1.19 1.182-1.19h.154c.659 0 1.19.533 1.19 1.19v8.38zm5.396 0c0 .659-.529 1.194-1.178 1.194h-.16c-.654 0-1.182-.535-1.182-1.194v-8.38c0-.657.529-1.19 1.182-1.19h.16c.649 0 1.178.533 1.178 1.19v8.38zm5.411 0c0 .659-.532 1.194-1.184 1.194h-.16c-.653 0-1.182-.535-1.182-1.194v-8.38c0-.657.529-1.19 1.182-1.19h.16c.652 0 1.184.533 1.184 1.19v8.38zm0 0" fill="#3A434E" sketch:type="MSShapeGroup"/></g></svg>
